!! 00000] TT[WS
!!!OTL: Sibao langong
!!!ARE: Asia, China, Shanxi LÅliang
!! Ethnic Group: Han
!! WII, 47 (1)
!!!SCT: J0462
!!!YEM: Copyright 1995, estate of Helmut Schaffrath.
**kern
*ICvox
*Ivox
*M2/4
*k[b-]
*F:
{4f
8f
8a
=1
8g
8a
8d
8c
=2
4.cc
8ff
=3
8dd
8cc
8a
8g}
=4
{8cc
4ff
8dd
=5
8cc
8dd
8cc
8g
=6
4.f
16d
16c
=7
2f}
=8
{8g
8a
4g
=9
4cc
8ff
8dd
=10
8.cc
16b-
8cc
8cc
=11
8g
8f
8d
8c}
=12
{8b-
8dd
8cc
8g
=13
8b-
8g
8f
8d
=14
8f
4c
16d
16f
=15
2c}
==
!!!AGN: Xiaodiao. Qingge
!!!ONB: ESAC (Essen Associative Code) Database: CHINA
!!!AMT: simple duple
!!!AIN: vox
!!!EED: Helmut Schaffrath
!!!EEV: 1.0
*-
